epam-assets/icon-sources/18/editor-chart-arc.svg

<svg width="18" height="18" viewBox="0 0 18 18" fill="none" xmlns="http://www.w3.org/2000/svg">
<g id="18/editor-chart-arc">
<path id="icon" fill-rule="evenodd" clip-rule="evenodd" d="M12.135 14.7L10.6275 12.09C11.3625 11.55 11.8725 10.71 11.9775 9.75H15C14.8725 11.82 13.7625 13.62 12.135 14.7ZM9.75 5.2725V2.25C12.975 2.445 15.555 5.025 15.75 8.25H12.7275C12.555 6.6825 11.3175 5.445 9.75 5.2725ZM5.25 9.375C5.25 9.855 5.3475 10.3125 5.535 10.725L2.925 12.2325C2.49 11.37 2.25 10.4025 2.25 9.375C2.25 5.9775 4.905 3.2025 8.25 3V6.0225C6.5625 6.21 5.25 7.635 5.25 9.375ZM8.625 15.75C6.3975 15.75 4.44 14.625 3.3 12.885L5.91 11.3775C6.525 12.21 7.5 12.75 8.625 12.75C9.105 12.75 9.5625 12.6525 9.975 12.465L11.4825 15.075C10.62 15.51 9.6525 15.75 8.625 15.75Z" fill="#6C6F80"/>
</g>
</svg>

<svg xmlns="http://www.w3.org/2000/svg" width="18" height="18" fill="none" viewBox="0 0 18 18">
  <path fill="#6C6F80" fill-rule="evenodd" d="m12.135 14.7-1.508-2.61a3.36 3.36 0 0 0 1.35-2.34H15a6.413 6.413 0 0 1-2.865 4.95ZM9.75 5.273V2.25a6.404 6.404 0 0 1 6 6h-3.023A3.366 3.366 0 0 0 9.75 5.272Zm-4.5 4.102c0 .48.098.938.285 1.35l-2.61 1.508A6.39 6.39 0 0 1 8.25 3v3.021a3.372 3.372 0 0 0-3 3.353Zm3.375 6.375A6.335 6.335 0 0 1 3.3 12.885l2.61-1.508a3.352 3.352 0 0 0 2.715 1.373c.48 0 .938-.098 1.35-.285l1.508 2.61a6.315 6.315 0 0 1-2.858.675Z" clip-rule="evenodd"/>
</svg>
